X:1
T:Mandy Lee
T:Mandy Lee
T:Thurland Chattaway
%%score [ 1 2 3 4 ]
L:1/8
Q:1/4=60
M:4/4
K:Ab
V:1 treble-8 nm="Soprano"
V:2 treble-8 nm="Alto"
V:3 bass nm="Tenor"
V:4 bass nm="Bass"
V:1
 e3/2 e/ =e e _e/ e3/2 f e | =d d d d d3 d | _d d d d d/ d3/2 e f | e2 =e f e3 z | %4
w: Man- dy Lee, I love you, 'deed I|do, my Man- dy Lee; Your|eyes, they shine like dia- monds, Love, to|me, Love, to me.|
 _e3/2 e/ =e e _e e !fermata!f e | =d d d d !fermata!d2 d d | e e =d _d c d e f | %7
w: Seems as tho my heart would break with-|out you, Man- dy Lee, 'Cause I|love you, Man- dy, 'deed I do, my|
 e2 d2 !fermata!c4 |] %8
w: Man- dy Lee.|
V:2
 c3/2 c/ c c c/ c3/2 d c | B F =E F B3 A | G G A =A B/ B3/2 c d | c2 c c c3 z | %4
w: Man- dy Lee, I love you, 'deed I|do, my Man- dy Lee; Your|eyes, they shine like dia- monds, Love, to|me, Love, to me.|
 c3/2 c/ c c c c !fermata!d c | B F E F !fermata!A2 G F | E E F G A B c d | c2 B2 !fermata!A4 |] %8
w: Seems as tho my heart would break with-|out you, Man- dy Lee, 'Cause I|love you, Man- dy, 'deed I do, my|Man- dy Lee.|
V:3
 A,3/2 A,/ B, B, =A,/ A,3/2 A, A, | _A, A, G, A, F,3 F, | E, E, F, ^F, G,/ G,3/2 G, G, | %3
w: Man- dy Lee, I love you, 'deed I|do, my Man- dy Lee; Your|eyes, they shine like dia- monds, Love, to|
 A, C B, A, G,3 z | A,3/2 A,/ B, B, =A, A, !fermata!A, A, | _A, A, G, A, !fermata!F,2 G, A, | %6
w: me, Oh, Love, to me.|Seems as tho my heart would break with-|out you, Man- dy Lee, 'Cause I|
 A, A, A, E, E, A, A, (A,/B,/) | (A,<F,) G,2 !fermata!E,4 |] %8
w: love you, Man- dy, 'deed I do, my _|Man- * dy Lee.|
V:4
 A,3/2 A,/ G, _G, F,/ F,3/2 F, F, | B,, B,, B,, B,, B,,3 B,, | B,, B,, E, E, E,/ E,3/2 E, E, | %3
w: Man- dy Lee, I love you, 'deed I|do, my Man- dy Lee; Your|eyes, they shine like dia- monds, Love, to|
 A,,2 C, C, C,3 z | A,3/2 A,/ G, _G, F, F, !fermata!F, F, | %5
w: me, Love, to me.|Seems as tho my heart would break with-|
 B,, B,, B,, B,, !fermata!=B,,2 B,, B,, | C, C, =B,, _B,, A,, A,, A,, D, | E,2 E,2 !fermata!A,,4 |] %8
w: out you, Man- dy Lee, 'Cause I|love you, Man- dy, 'deed I do, my|Man- dy Lee.|

